svg/m/DZ.svg

<svg width="20" height="15" viewBox="0 0 20 15" fill="none" xmlns="http://www.w3.org/2000/svg">
<g clip-path="url(#clip0_270_60832)">
<rect width="20" height="15" fill="white"/>
<path fill-rule="evenodd" clip-rule="evenodd" d="M10 0H20V15H10V0Z" fill="#F7FCFF"/>
<path fill-rule="evenodd" clip-rule="evenodd" d="M0 0H10V15H0V0Z" fill="#36A400"/>
<path fill-rule="evenodd" clip-rule="evenodd" d="M11.6375 3.90785C12.5374 3.90785 13.3755 4.15502 14.0784 4.58067C13.1021 3.43373 11.6478 2.70621 10.0236 2.70621C7.08411 2.70621 4.70118 5.08914 4.70118 8.02864C4.70118 10.9681 7.08411 13.3511 10.0236 13.3511C11.4879 13.3511 12.814 12.7598 13.7763 11.803C13.1403 12.1252 12.4118 12.3082 11.6375 12.3082C9.15531 12.3082 7.14312 10.4277 7.14312 8.10801C7.14312 5.78833 9.15531 3.90785 11.6375 3.90785ZM13.3973 5.51618L12.1048 6.98107L10.2483 6.46955L11.2775 8.07941L10.2483 9.79313L12.1957 9.09206L13.2603 10.7539V8.82512L15 8.07941L13.2603 7.45624L13.3973 5.51618Z" fill="#FF0000"/>
</g>
<defs>
<clipPath id="clip0_270_60832">
<rect width="20" height="15" fill="white"/>
</clipPath>
</defs>
</svg>

<svg width="20" height="15" fill="none" xmlns="http://www.w3.org/2000/svg">
  <path fill-rule="evenodd" clip-rule="evenodd" d="M10 0h10v15H10V0z" fill="#F7FCFF"/>
  <path fill-rule="evenodd" clip-rule="evenodd" d="M0 0h10v15H0V0z" fill="#36A400"/>
  <path fill-rule="evenodd" clip-rule="evenodd" d="M11.637 3.908c.9 0 1.739.247 2.441.673a5.322 5.322 0 10-.302 7.222 4.724 4.724 0 01-2.139.505c-2.482 0-4.494-1.88-4.494-4.2 0-2.32 2.012-4.2 4.494-4.2zm1.76 1.608l-1.292 1.465-1.857-.511 1.03 1.61-1.03 1.713 1.948-.7 1.064 1.66V8.826L15 8.08l-1.74-.623.137-1.94z" fill="red"/>
</svg>
